X:0836
T:The Races At Carrick        (jig)     0836
C:after Mr. Cronin
B:O'Neill's Music Of Ireland (The 1850) Lyon & Healy, Chicago, 1903 edition
Z:FROM O'NEILL'S TO NOTEWORTHY, FROM NOTEWORTHY TO ABC, MIDI AND .TXT BY VINCE
BRENNAN July 2003 (HTTP://WWW.SOSYOURMOM.COM)
I:abc2nwc
M:6/8
L:1/8
K:D
g|fdB Bcd|ecA A2G|F3/2A/2A def|gfg bag|
fdB Bcd|ecA A zG|F3/2A/2A cde|gec d2:|
|:e|~f3fed|faa a2f|gfg Bcd|ecA A2d|
~f3fed|faa agf|gfg bag|fdd d2:|
